X:9
T:Quarry Jig
C:Mike Mahar
L:1/8
Q:1/4=140
M:6/8
K:G
D |: "G"G2D B2D | G2A B3 | "C"ABc BAG | "D"GAG FED |
 "G"G2D B2D | d2c B3 | "C"ABc BAG |  "D"FEF "G"G2D :|
|: "C"E2E EFG | "G"D2D DEF | "C"GFG "D"ABc | "G"BAG "D"A2D |
"C"E2E EFG |  "G"D2D DEF | "C"GFG "D"ABc |1 BAF "G"G2D :|2 BAF "G"G3 |]

